static/img/mobile/scrollbar-anatomy-dark-1.svg

<svg fill="none" height="356" viewBox="0 0 960 356" width="960" xmlns="http://www.w3.org/2000/svg" xmlns:xlink="http://www.w3.org/1999/xlink"><clipPath id="a"><path d="m0 0h960v337h-960z"/></clipPath><path d="m0 0h960v356h-960z" fill="#252a2e"/><g clip-path="url(#a)"><rect fill="#252a2e" height="297" rx="8" width="318.667"/><rect fill="#252a2e" height="297" rx="8" width="318.667"/><g fill="#a3a6b1" opacity=".7"><path d="m0 0h4v144h-4z" transform="translate(38.5 40)"/><rect height="144" rx="2" width="4" x="38.5" y="40"/></g><path d="m8.05664 331-4.14062-11.924h-.07813c.11068 1.771.16602 3.431.16602 4.981v6.943h-2.11914v-14.277h3.29101l3.96484 11.357h.0586l4.08198-11.357h3.3008v14.277h-2.2461v-7.061c0-.709.0163-1.634.0489-2.773.039-1.139.0716-1.829.0976-2.07h-.0781l-4.2871 11.904zm14.58596 0h-2.2949v-10.801h2.2949zm-2.4317-13.662c0-.41.1107-.726.3321-.947.2278-.222.5501-.332.9668-.332.4036 0 .7161.11.9375.332.2278.221.3418.537.3418.947 0 .391-.114.7-.3418.928-.2214.221-.5339.332-.9375.332-.4167 0-.739-.111-.9668-.332-.2214-.228-.3321-.537-.3321-.928zm15.4746 13.662h-2.3046v-6.641c0-.833-.1693-1.455-.5079-1.865-.332-.41-.8626-.615-1.5918-.615-.97 0-1.6796.286-2.1289.859-.4492.573-.6738 1.533-.6738 2.881v5.381h-2.2949v-10.801h1.7969l.3222 1.416h.1172c.3255-.514.7878-.911 1.3867-1.191.599-.28 1.2631-.42 1.9922-.42 2.5912 0 3.8867 1.318 3.8867 3.955zm5.7383 0h-2.2949v-10.801h2.2949zm-2.4316-13.662c0-.41.1107-.726.332-.947.2279-.222.5501-.332.9668-.332.4037 0 .7162.11.9375.332.2279.221.3418.537.3418.947 0 .391-.1139.7-.3418.928-.2213.221-.5338.332-.9375.332-.4167 0-.7389-.111-.9668-.332-.2213-.228-.332-.537-.332-.928zm15.0742 13.662h-2.3047v-6.66c0-.827-.1562-1.442-.4687-1.846-.3125-.41-.8008-.615-1.4649-.615-.8854 0-1.5364.29-1.9531.869-.4102.573-.6152 1.53-.6152 2.871v5.381h-2.295v-10.801h1.7969l.3223 1.416h.1172c.2995-.514.7324-.911 1.2988-1.191.5729-.28 1.2012-.42 1.8848-.42 1.6601 0 2.7604.566 3.3007 1.699h.1563c.319-.534.7682-.95 1.3477-1.25.5794-.299 1.2434-.449 1.9921-.449 1.2891 0 2.2266.325 2.8125.976.5925.652.8887 1.644.8887 2.979v7.041h-2.2949v-6.66c0-.827-.1595-1.442-.4785-1.846-.3125-.41-.8008-.615-1.4649-.615-.8919 0-1.5462.28-1.9629.84-.4101.553-.6152 1.406-.6152 2.558zm17.0274 0-.459-1.504h-.0782c-.5208.658-1.0449 1.107-1.5722 1.348-.5274.234-1.2045.351-2.0313.351-1.0612 0-1.8913-.286-2.4902-.859-.5925-.573-.8887-1.384-.8887-2.432 0-1.113.4134-1.953 1.2403-2.519.8268-.567 2.0865-.876 3.7793-.928l1.8652-.059v-.576c0-.69-.1628-1.204-.4883-1.543-.319-.345-.8171-.517-1.4941-.517-.5534 0-1.084.081-1.5918.244s-.9961.355-1.4649.576l-.7422-1.641c.586-.306 1.2272-.537 1.9239-.693.6966-.163 1.3541-.244 1.9726-.244 1.3737 0 2.4089.299 3.1055.898.7031.599 1.0547 1.54 1.0547 2.823v7.275zm-3.418-1.562c.8333 0 1.5006-.232 2.0019-.694.5078-.469.7618-1.123.7618-1.963v-.937l-1.3868.058c-1.0807.039-1.8685.222-2.3632.547-.4883.319-.7325.811-.7325 1.475 0 .482.1433.856.4297 1.123.2865.26.7162.391 1.2891.391zm10.8066 1.562h-2.2949v-15.195h2.2949z" fill="#fff"/><rect fill="#252a2e" height="297" rx="8" width="318.667" x="320.666"/><path d="m0 0h16v198h-16z" fill="#171c1e" transform="translate(350.666 49.5)"/><rect fill="#a3a6b1" height="144" rx="4" width="8" x="354.666" y="53.5"/><path d="m334.162 323.725c0 2.356-.654 4.16-1.963 5.41-1.308 1.243-3.193 1.865-5.654 1.865h-3.994v-14.277h4.414c2.272 0 4.04.612 5.303 1.836s1.894 2.946 1.894 5.166zm-2.461.078c0-3.418-1.598-5.127-4.795-5.127h-2.021v10.361h1.66c3.437 0 5.156-1.745 5.156-5.234zm10.26 7.392c-1.68 0-2.995-.488-3.945-1.465-.944-.983-1.416-2.334-1.416-4.052 0-1.765.439-3.151 1.318-4.16.879-1.01 2.087-1.514 3.623-1.514 1.426 0 2.552.433 3.379 1.299s1.24 2.057 1.24 3.574v1.24h-7.197c.032 1.048.316 1.856.849 2.422.534.56 1.286.84 2.256.84.638 0 1.231-.059 1.778-.176.553-.124 1.146-.325 1.777-.605v1.865c-.56.267-1.126.456-1.699.566-.573.111-1.227.166-1.963.166zm-.42-9.453c-.729 0-1.315.231-1.758.694-.436.462-.696 1.136-.781 2.021h4.902c-.013-.892-.228-1.566-.644-2.021-.417-.463-.99-.694-1.719-.694zm12.897.196h-2.637v9.062h-2.305v-9.062h-1.777v-1.075l1.777-.703v-.703c0-1.276.3-2.22.899-2.832.598-.618 1.513-.928 2.744-.928.807 0 1.601.134 2.382.401l-.605 1.738c-.566-.182-1.107-.274-1.621-.274-.521 0-.902.163-1.143.489-.234.319-.351.801-.351 1.445v.703h2.637zm8.853 9.062-.459-1.504h-.078c-.521.658-1.045 1.107-1.572 1.348-.528.234-1.205.351-2.032.351-1.061 0-1.891-.286-2.49-.859-.592-.573-.889-1.384-.889-2.432 0-1.113.414-1.953 1.241-2.519.827-.567 2.086-.876 3.779-.928l1.865-.059v-.576c0-.69-.163-1.204-.488-1.543-.319-.345-.817-.517-1.494-.517-.554 0-1.084.081-1.592.244s-.996.355-1.465.576l-.742-1.641c.586-.306 1.227-.537 1.924-.693.696-.163 1.354-.244 1.972-.244 1.374 0 2.409.299 3.106.898.703.599 1.055 1.54 1.055 2.823v7.275zm-3.418-1.562c.833 0 1.501-.232 2.002-.694.508-.469.762-1.123.762-1.963v-.937l-1.387.058c-1.081.039-1.868.222-2.363.547-.489.319-.733.811-.733 1.475 0 .482.144.856.43 1.123.286.26.716.391 1.289.391zm16.129 1.562-.322-1.416h-.118c-.319.501-.774.895-1.367 1.182-.586.286-1.256.429-2.011.429-1.309 0-2.286-.325-2.93-.976-.645-.651-.967-1.638-.967-2.959v-7.061h2.315v6.66c0 .827.169 1.449.507 1.866.339.41.87.615 1.592.615.964 0 1.67-.287 2.119-.86.456-.579.684-1.546.684-2.9v-5.381h2.305v10.801zm7.623 0h-2.295v-15.195h2.295zm7.564-1.66c.56 0 1.12-.088 1.68-.264v1.729c-.254.11-.583.202-.986.273-.397.078-.811.117-1.24.117-2.175 0-3.262-1.146-3.262-3.437v-5.82h-1.475v-1.016l1.582-.84.782-2.285h1.416v2.402h3.076v1.739h-3.076v5.781c0 .553.136.963.41 1.23.28.261.644.391 1.093.391z" fill="#fff"/><rect fill="#252a2e" height="297" rx="8" width="318.667" x="641.334"/><rect fill="#252a2e" height="297" rx="8" width="318.667" x="641.334"/><rect fill="#171c1e" height="233" rx="4" width="32" x="666.334" y="32"/><path d="m666.334 36c0-2.2091 1.791-4 4-4h24c2.209 0 4 1.7909 4 4v24c0 2.2091-1.791 4-4 4h-24c-2.209 0-4-1.7909-4-4z" fill="#6a6e79"/><path d="m677.334 50.5 5-5 5 5z" fill="#fff"/><rect fill="#a3a6b1" height="111" rx="4" width="8" x="678.334" y="68"/><path d="m666.334 237c0-2.209 1.791-4 4-4h24c2.209 0 4 1.791 4 4v24c0 2.209-1.791 4-4 4h-24c-2.209 0-4-1.791-4-4z" fill="#6a6e79"/><g fill="#fff"><path d="m677.334 246.5 5 5 5-5z"/><path d="m643.219 316.723h4.238c1.966 0 3.385.286 4.258.859.879.573 1.318 1.478 1.318 2.715 0 .833-.215 1.527-.644 2.08-.43.553-1.049.902-1.856 1.045v.098c1.003.188 1.738.563 2.207 1.123.475.553.713 1.305.713 2.255 0 1.283-.449 2.289-1.348 3.018-.891.723-2.135 1.084-3.73 1.084h-5.156zm2.334 5.898h2.246c.976 0 1.689-.153 2.139-.459.449-.312.673-.84.673-1.582 0-.67-.244-1.156-.732-1.455-.482-.299-1.25-.449-2.305-.449h-2.021zm0 1.895v4.521h2.48c.977 0 1.712-.185 2.207-.557.502-.377.752-.97.752-1.777 0-.742-.254-1.292-.762-1.65-.507-.358-1.279-.537-2.314-.537zm18.492 6.484-.322-1.416h-.118c-.319.501-.774.895-1.367 1.182-.586.286-1.256.429-2.011.429-1.309 0-2.286-.325-2.93-.976-.645-.651-.967-1.638-.967-2.959v-7.061h2.315v6.66c0 .827.169 1.449.507 1.866.339.41.869.615 1.592.615.964 0 1.67-.287 2.119-.86.456-.579.684-1.546.684-2.9v-5.381h2.305v10.801zm9.351-1.66c.56 0 1.12-.088 1.68-.264v1.729c-.254.11-.583.202-.986.273-.397.078-.811.117-1.24.117-2.175 0-3.262-1.146-3.262-3.437v-5.82h-1.475v-1.016l1.582-.84.782-2.285h1.416v2.402h3.076v1.739h-3.076v5.781c0 .553.136.963.41 1.23.28.261.644.391 1.093.391zm8.122 0c.559 0 1.119-.088 1.679-.264v1.729c-.254.11-.582.202-.986.273-.397.078-.811.117-1.24.117-2.175 0-3.262-1.146-3.262-3.437v-5.82h-1.475v-1.016l1.582-.84.782-2.285h1.416v2.402h3.076v1.739h-3.076v5.781c0 .553.136.963.41 1.23.28.261.644.391 1.094.391zm13.677-3.76c0 1.764-.452 3.141-1.357 4.131s-2.165 1.484-3.779 1.484c-1.01 0-1.901-.228-2.676-.683-.775-.456-1.371-1.11-1.787-1.963-.417-.853-.625-1.843-.625-2.969 0-1.751.449-3.118 1.347-4.101.899-.984 2.165-1.475 3.799-1.475 1.563 0 2.8.504 3.711 1.514.912 1.002 1.367 2.356 1.367 4.062zm-7.861 0c0 2.494.921 3.74 2.764 3.74 1.823 0 2.734-1.246 2.734-3.74 0-2.467-.918-3.701-2.754-3.701-.963 0-1.663.319-2.099.957-.43.638-.645 1.553-.645 2.744zm20.26 5.42h-2.305v-6.641c0-.833-.169-1.455-.508-1.865-.332-.41-.862-.615-1.592-.615-.97 0-1.679.286-2.128.859-.45.573-.674 1.533-.674 2.881v5.381h-2.295v-10.801h1.797l.322 1.416h.117c.326-.514.788-.911 1.387-1.191s1.263-.42 1.992-.42c2.591 0 3.887 1.318 3.887 3.955zm10.699-3.076c0 1.055-.384 1.865-1.152 2.431-.769.56-1.869.84-3.301.84-1.439 0-2.595-.218-3.467-.654v-1.982c1.27.586 2.451.879 3.545.879 1.413 0 2.119-.427 2.119-1.28 0-.273-.078-.501-.234-.683-.157-.183-.414-.371-.772-.567-.358-.195-.856-.416-1.494-.664-1.243-.482-2.086-.963-2.529-1.445-.436-.482-.654-1.107-.654-1.875 0-.925.371-1.641 1.113-2.149.748-.514 1.764-.771 3.047-.771 1.269 0 2.47.257 3.603.771l-.742 1.729c-1.165-.482-2.145-.723-2.939-.723-1.211 0-1.817.345-1.817 1.035 0 .339.156.625.469.86.319.234 1.009.556 2.07.967.892.345 1.54.66 1.944.947.403.286.703.618.898.996.195.371.293.817.293 1.338z"/></g></g></svg>

<svg width="960" height="356" viewBox="0 0 960 356" fill="none" xmlns="http://www.w3.org/2000/svg"><rect width="960" height="356" fill="#252A2E"/><g clip-path="url(#clip0_326_61691)"><rect width="318.667" height="297" rx="8" fill="#252A2E"/><rect width="318.667" height="297" rx="8" fill="#252A2E"/><g opacity=".7"><rect width="4" height="144" transform="translate(38.5 40)" fill="#A3A6B1"/><rect x="38.5" y="40" width="4" height="144" rx="2" fill="#A3A6B1"/></g><path d="M8.05664 331L3.91602 319.076H3.83789C3.94857 320.847 4.00391 322.507 4.00391 324.057V331H1.88477V316.723H5.17578L9.14062 328.08H9.19922L13.2812 316.723H16.582V331H14.3359V323.939C14.3359 323.23 14.3522 322.305 14.3848 321.166C14.4238 320.027 14.4564 319.337 14.4824 319.096H14.4043L10.1172 331H8.05664ZM22.6426 331H20.3477V320.199H22.6426V331ZM20.2109 317.338C20.2109 316.928 20.3216 316.612 20.543 316.391C20.7708 316.169 21.0931 316.059 21.5098 316.059C21.9134 316.059 22.2259 316.169 22.4473 316.391C22.6751 316.612 22.7891 316.928 22.7891 317.338C22.7891 317.729 22.6751 318.038 22.4473 318.266C22.2259 318.487 21.9134 318.598 21.5098 318.598C21.0931 318.598 20.7708 318.487 20.543 318.266C20.3216 318.038 20.2109 317.729 20.2109 317.338ZM35.6855 331H33.3809V324.359C33.3809 323.526 33.2116 322.904 32.873 322.494C32.541 322.084 32.0104 321.879 31.2812 321.879C30.3112 321.879 29.6016 322.165 29.1523 322.738C28.7031 323.311 28.4785 324.271 28.4785 325.619V331H26.1836V320.199H27.9805L28.3027 321.615H28.4199C28.7454 321.101 29.2077 320.704 29.8066 320.424C30.4056 320.144 31.0697 320.004 31.7988 320.004C34.39 320.004 35.6855 321.322 35.6855 323.959V331ZM41.4238 331H39.1289V320.199H41.4238V331ZM38.9922 317.338C38.9922 316.928 39.1029 316.612 39.3242 316.391C39.5521 316.169 39.8743 316.059 40.291 316.059C40.6947 316.059 41.0072 316.169 41.2285 316.391C41.4564 316.612 41.5703 316.928 41.5703 317.338C41.5703 317.729 41.4564 318.038 41.2285 318.266C41.0072 318.487 40.6947 318.598 40.291 318.598C39.8743 318.598 39.5521 318.487 39.3242 318.266C39.1029 318.038 38.9922 317.729 38.9922 317.338ZM54.0664 331H51.7617V324.34C51.7617 323.513 51.6055 322.898 51.293 322.494C50.9805 322.084 50.4922 321.879 49.8281 321.879C48.9427 321.879 48.2917 322.169 47.875 322.748C47.4648 323.321 47.2598 324.278 47.2598 325.619V331H44.9648V320.199H46.7617L47.084 321.615H47.2012C47.5007 321.101 47.9336 320.704 48.5 320.424C49.0729 320.144 49.7012 320.004 50.3848 320.004C52.0449 320.004 53.1452 320.57 53.6855 321.703H53.8418C54.1608 321.169 54.61 320.753 55.1895 320.453C55.7689 320.154 56.4329 320.004 57.1816 320.004C58.4707 320.004 59.4082 320.329 59.9941 320.98C60.5866 321.632 60.8828 322.624 60.8828 323.959V331H58.5879V324.34C58.5879 323.513 58.4284 322.898 58.1094 322.494C57.7969 322.084 57.3086 321.879 56.6445 321.879C55.7526 321.879 55.0983 322.159 54.6816 322.719C54.2715 323.272 54.0664 324.125 54.0664 325.277V331ZM71.0938 331L70.6348 329.496H70.5566C70.0358 330.154 69.5117 330.603 68.9844 330.844C68.457 331.078 67.7799 331.195 66.9531 331.195C65.8919 331.195 65.0618 330.909 64.4629 330.336C63.8704 329.763 63.5742 328.952 63.5742 327.904C63.5742 326.791 63.9876 325.951 64.8145 325.385C65.6413 324.818 66.901 324.509 68.5938 324.457L70.459 324.398V323.822C70.459 323.132 70.2962 322.618 69.9707 322.279C69.6517 321.934 69.1536 321.762 68.4766 321.762C67.9232 321.762 67.3926 321.843 66.8848 322.006C66.377 322.169 65.8887 322.361 65.4199 322.582L64.6777 320.941C65.2637 320.635 65.9049 320.404 66.6016 320.248C67.2982 320.085 67.9557 320.004 68.5742 320.004C69.9479 320.004 70.9831 320.303 71.6797 320.902C72.3828 321.501 72.7344 322.442 72.7344 323.725V331H71.0938ZM67.6758 329.438C68.5091 329.438 69.1764 329.206 69.6777 328.744C70.1855 328.275 70.4395 327.621 70.4395 326.781V325.844L69.0527 325.902C67.972 325.941 67.1842 326.124 66.6895 326.449C66.2012 326.768 65.957 327.26 65.957 327.924C65.957 328.406 66.1003 328.78 66.3867 329.047C66.6732 329.307 67.1029 329.438 67.6758 329.438ZM78.4824 331H76.1875V315.805H78.4824V331Z" fill="#fff"/><rect x="320.666" width="318.667" height="297" rx="8" fill="#252A2E"/><rect width="16" height="198" transform="translate(350.666 49.5)" fill="#171C1E"/><rect x="354.666" y="53.5" width="8" height="144" rx="4" fill="#A3A6B1"/><path d="M334.162 323.725C334.162 326.081 333.508 327.885 332.199 329.135C330.891 330.378 329.006 331 326.545 331H322.551V316.723H326.965C329.237 316.723 331.005 317.335 332.268 318.559C333.531 319.783 334.162 321.505 334.162 323.725ZM331.701 323.803C331.701 320.385 330.103 318.676 326.906 318.676H324.885V329.037H326.545C329.982 329.037 331.701 327.292 331.701 323.803ZM341.961 331.195C340.281 331.195 338.966 330.707 338.016 329.73C337.072 328.747 336.6 327.396 336.6 325.678C336.6 323.913 337.039 322.527 337.918 321.518C338.797 320.508 340.005 320.004 341.541 320.004C342.967 320.004 344.093 320.437 344.92 321.303C345.747 322.169 346.16 323.36 346.16 324.877V326.117H338.963C338.995 327.165 339.279 327.973 339.812 328.539C340.346 329.099 341.098 329.379 342.068 329.379C342.706 329.379 343.299 329.32 343.846 329.203C344.399 329.079 344.992 328.878 345.623 328.598V330.463C345.063 330.73 344.497 330.919 343.924 331.029C343.351 331.14 342.697 331.195 341.961 331.195ZM341.541 321.742C340.812 321.742 340.226 321.973 339.783 322.436C339.347 322.898 339.087 323.572 339.002 324.457H343.904C343.891 323.565 343.676 322.891 343.26 322.436C342.843 321.973 342.27 321.742 341.541 321.742ZM354.438 321.938H351.801V331H349.496V321.938H347.719V320.863L349.496 320.16V319.457C349.496 318.181 349.796 317.237 350.395 316.625C350.993 316.007 351.908 315.697 353.139 315.697C353.946 315.697 354.74 315.831 355.521 316.098L354.916 317.836C354.35 317.654 353.809 317.562 353.295 317.562C352.774 317.562 352.393 317.725 352.152 318.051C351.918 318.37 351.801 318.852 351.801 319.496V320.199H354.438V321.938ZM363.291 331L362.832 329.496H362.754C362.233 330.154 361.709 330.603 361.182 330.844C360.654 331.078 359.977 331.195 359.15 331.195C358.089 331.195 357.259 330.909 356.66 330.336C356.068 329.763 355.771 328.952 355.771 327.904C355.771 326.791 356.185 325.951 357.012 325.385C357.839 324.818 359.098 324.509 360.791 324.457L362.656 324.398V323.822C362.656 323.132 362.493 322.618 362.168 322.279C361.849 321.934 361.351 321.762 360.674 321.762C360.12 321.762 359.59 321.843 359.082 322.006C358.574 322.169 358.086 322.361 357.617 322.582L356.875 320.941C357.461 320.635 358.102 320.404 358.799 320.248C359.495 320.085 360.153 320.004 360.771 320.004C362.145 320.004 363.18 320.303 363.877 320.902C364.58 321.501 364.932 322.442 364.932 323.725V331H363.291ZM359.873 329.438C360.706 329.438 361.374 329.206 361.875 328.744C362.383 328.275 362.637 327.621 362.637 326.781V325.844L361.25 325.902C360.169 325.941 359.382 326.124 358.887 326.449C358.398 326.768 358.154 327.26 358.154 327.924C358.154 328.406 358.298 328.78 358.584 329.047C358.87 329.307 359.3 329.438 359.873 329.438ZM376.002 331L375.68 329.584H375.562C375.243 330.085 374.788 330.479 374.195 330.766C373.609 331.052 372.939 331.195 372.184 331.195C370.875 331.195 369.898 330.87 369.254 330.219C368.609 329.568 368.287 328.581 368.287 327.26V320.199H370.602V326.859C370.602 327.686 370.771 328.308 371.109 328.725C371.448 329.135 371.979 329.34 372.701 329.34C373.665 329.34 374.371 329.053 374.82 328.48C375.276 327.901 375.504 326.934 375.504 325.58V320.199H377.809V331H376.002ZM383.625 331H381.33V315.805H383.625V331ZM391.189 329.34C391.749 329.34 392.309 329.252 392.869 329.076V330.805C392.615 330.915 392.286 331.007 391.883 331.078C391.486 331.156 391.072 331.195 390.643 331.195C388.468 331.195 387.381 330.049 387.381 327.758V321.938H385.906V320.922L387.488 320.082L388.27 317.797H389.686V320.199H392.762V321.938H389.686V327.719C389.686 328.272 389.822 328.682 390.096 328.949C390.376 329.21 390.74 329.34 391.189 329.34Z" fill="#fff"/><rect x="641.334" width="318.667" height="297" rx="8" fill="#252A2E"/><rect x="641.334" width="318.667" height="297" rx="8" fill="#252A2E"/><rect x="666.334" y="32" width="32" height="233" rx="4" fill="#171C1E"/><path d="M666.334 36C666.334 33.7909 668.125 32 670.334 32H694.334C696.543 32 698.334 33.7909 698.334 36V60C698.334 62.2091 696.543 64 694.334 64H670.334C668.125 64 666.334 62.2091 666.334 60V36Z" fill="#6A6E79"/><path d="M677.334 50.5L682.334 45.5L687.334 50.5H677.334Z" fill="#fff"/><rect x="678.334" y="68" width="8" height="111" rx="4" fill="#A3A6B1"/><path d="M666.334 237C666.334 234.791 668.125 233 670.334 233H694.334C696.543 233 698.334 234.791 698.334 237V261C698.334 263.209 696.543 265 694.334 265H670.334C668.125 265 666.334 263.209 666.334 261V237Z" fill="#6A6E79"/><path d="M677.334 246.5L682.334 251.5L687.334 246.5H677.334Z" fill="#fff"/><path d="M643.219 316.723H647.457C649.423 316.723 650.842 317.009 651.715 317.582C652.594 318.155 653.033 319.06 653.033 320.297C653.033 321.13 652.818 321.824 652.389 322.377C651.959 322.93 651.34 323.279 650.533 323.422V323.52C651.536 323.708 652.271 324.083 652.74 324.643C653.215 325.196 653.453 325.948 653.453 326.898C653.453 328.181 653.004 329.187 652.105 329.916C651.214 330.639 649.97 331 648.375 331H643.219V316.723ZM645.553 322.621H647.799C648.775 322.621 649.488 322.468 649.938 322.162C650.387 321.85 650.611 321.322 650.611 320.58C650.611 319.91 650.367 319.424 649.879 319.125C649.397 318.826 648.629 318.676 647.574 318.676H645.553V322.621ZM645.553 324.516V329.037H648.033C649.01 329.037 649.745 328.852 650.24 328.48C650.742 328.103 650.992 327.51 650.992 326.703C650.992 325.961 650.738 325.411 650.23 325.053C649.723 324.695 648.951 324.516 647.916 324.516H645.553ZM664.045 331L663.723 329.584H663.605C663.286 330.085 662.831 330.479 662.238 330.766C661.652 331.052 660.982 331.195 660.227 331.195C658.918 331.195 657.941 330.87 657.297 330.219C656.652 329.568 656.33 328.581 656.33 327.26V320.199H658.645V326.859C658.645 327.686 658.814 328.308 659.152 328.725C659.491 329.135 660.021 329.34 660.744 329.34C661.708 329.34 662.414 329.053 662.863 328.48C663.319 327.901 663.547 326.934 663.547 325.58V320.199H665.852V331H664.045ZM673.396 329.34C673.956 329.34 674.516 329.252 675.076 329.076V330.805C674.822 330.915 674.493 331.007 674.09 331.078C673.693 331.156 673.279 331.195 672.85 331.195C670.675 331.195 669.588 330.049 669.588 327.758V321.938H668.113V320.922L669.695 320.082L670.477 317.797H671.893V320.199H674.969V321.938H671.893V327.719C671.893 328.272 672.029 328.682 672.303 328.949C672.583 329.21 672.947 329.34 673.396 329.34ZM681.518 329.34C682.077 329.34 682.637 329.252 683.197 329.076V330.805C682.943 330.915 682.615 331.007 682.211 331.078C681.814 331.156 681.4 331.195 680.971 331.195C678.796 331.195 677.709 330.049 677.709 327.758V321.938H676.234V320.922L677.816 320.082L678.598 317.797H680.014V320.199H683.09V321.938H680.014V327.719C680.014 328.272 680.15 328.682 680.424 328.949C680.704 329.21 681.068 329.34 681.518 329.34ZM695.195 325.58C695.195 327.344 694.743 328.721 693.838 329.711C692.933 330.701 691.673 331.195 690.059 331.195C689.049 331.195 688.158 330.967 687.383 330.512C686.608 330.056 686.012 329.402 685.596 328.549C685.179 327.696 684.971 326.706 684.971 325.58C684.971 323.829 685.42 322.462 686.318 321.479C687.217 320.495 688.483 320.004 690.117 320.004C691.68 320.004 692.917 320.508 693.828 321.518C694.74 322.52 695.195 323.874 695.195 325.58ZM687.334 325.58C687.334 328.074 688.255 329.32 690.098 329.32C691.921 329.32 692.832 328.074 692.832 325.58C692.832 323.113 691.914 321.879 690.078 321.879C689.115 321.879 688.415 322.198 687.979 322.836C687.549 323.474 687.334 324.389 687.334 325.58ZM707.594 331H705.289V324.359C705.289 323.526 705.12 322.904 704.781 322.494C704.449 322.084 703.919 321.879 703.189 321.879C702.219 321.879 701.51 322.165 701.061 322.738C700.611 323.311 700.387 324.271 700.387 325.619V331H698.092V320.199H699.889L700.211 321.615H700.328C700.654 321.101 701.116 320.704 701.715 320.424C702.314 320.144 702.978 320.004 703.707 320.004C706.298 320.004 707.594 321.322 707.594 323.959V331ZM718.293 327.924C718.293 328.979 717.909 329.789 717.141 330.355C716.372 330.915 715.272 331.195 713.84 331.195C712.401 331.195 711.245 330.977 710.373 330.541V328.559C711.643 329.145 712.824 329.438 713.918 329.438C715.331 329.438 716.037 329.011 716.037 328.158C716.037 327.885 715.959 327.657 715.803 327.475C715.646 327.292 715.389 327.104 715.031 326.908C714.673 326.713 714.175 326.492 713.537 326.244C712.294 325.762 711.451 325.281 711.008 324.799C710.572 324.317 710.354 323.692 710.354 322.924C710.354 321.999 710.725 321.283 711.467 320.775C712.215 320.261 713.231 320.004 714.514 320.004C715.783 320.004 716.984 320.261 718.117 320.775L717.375 322.504C716.21 322.022 715.23 321.781 714.436 321.781C713.225 321.781 712.619 322.126 712.619 322.816C712.619 323.155 712.775 323.441 713.088 323.676C713.407 323.91 714.097 324.232 715.158 324.643C716.05 324.988 716.698 325.303 717.102 325.59C717.505 325.876 717.805 326.208 718 326.586C718.195 326.957 718.293 327.403 718.293 327.924Z" fill="#fff"/></g><defs><clipPath id="clip0_326_61691"><rect width="960" height="337" fill="#fff"/></clipPath></defs></svg>
